X: 24512
T: Lucy Farr's
R: barndance
M: 4/4
K: Dmajor
(ABc|d2 d2 d2 d2|cdec dcBA|f2 f2 f2 f2|efge f2 d2|
fgaf e2 e2|fgaf d2 d2|efge c2 c2|B2 A2 B2 A2|
fgaf e2 e2|fgaf d2 d2|B2 g2 e2 d2|Bgec dcBA:|

